outputs/icons/communication/notifications_off_round.svg

<svg xmlns="http://www.w3.org/2000/svg" width="1200" height="1200" fill="none"><path fill="#000" d="M249.995 950c-27.614 0-50-22.385-50-50s22.386-50 50-50h50V500q0-41.25 10.625-81.25t31.875-76.25l157.5 157.5h-140l-255-255c-19.33-19.33-19.33-50.67 0-70s50.67-19.33 70 0l849.88 849.88c19.395 19.395 19.395 50.845 0 70.24-19.305 19.305-50.565 19.41-70 .24L807.495 950zm650-192.5-490-490q25-20 53.75-35 28.752-15 61.25-22.5v-35q-.001-31.25 21.875-53.125C561.455 107.292 579.16 100 599.995 100s38.54 7.292 53.125 21.875Q674.996 143.75 674.995 175v35c66.665 16.667 120.835 51.875 162.5 105.625q62.499 80.625 62.5 184.375zm-300 342.5q-41.249.001-70.625-29.375T499.995 1000h200q.001 41.249-29.375 70.625T599.995 1100"/></svg>

<svg width="1200" height="1200" viewBox="0 0 1200 1200" fill="none" xmlns="http://www.w3.org/2000/svg"><path d="M249.995 950C222.381 950 199.995 927.615 199.995 900C199.995 872.385 222.381 850 249.995 850H299.995V500C299.995 472.5 303.537 445.416 310.62 418.75C317.704 392.083 328.328 366.666 342.495 342.5L499.995 500H359.995L104.995 245C85.665 225.67 85.665 194.33 104.995 175C124.325 155.67 155.665 155.67 174.995 175L1024.875 1024.88C1044.27 1044.275 1044.27 1075.725 1024.875 1095.12C1005.57 1114.425 974.31 1114.53 954.875 1095.36L807.495 950H249.995ZM899.995 757.5L409.995 267.5C426.662 254.167 444.578 242.5 463.745 232.5C482.912 222.5 503.33 215 524.995 210V175C524.995 154.167 532.285 136.458 546.87 121.875C561.455 107.292 579.16 100 599.995 100C620.83 100 638.535 107.292 653.12 121.875C667.705 136.458 674.995 154.167 674.995 175V210C741.66 226.667 795.83 261.875 837.495 315.625C879.16 369.375 899.995 430.833 899.995 500V757.5ZM599.995 1100C572.495 1100 548.955 1090.21 529.37 1070.625C509.785 1051.04 499.995 1027.5 499.995 1000H699.995C699.995 1027.5 690.205 1051.04 670.62 1070.625C651.035 1090.21 627.495 1100 599.995 1100Z" fill="#1D1E23"/></svg>
